svgs/solid/grid-2.svg

<svg xmlns="http://www.w3.org/2000/svg" viewBox="0 0 512 512"><!-- Font Awesome Pro 6.0.0-alpha2 by @fontawesome - https://fontawesome.com License - https://fontawesome.com/license (Commercial License) --><path d="M176 0H48C21.49 0 0 21.49 0 48V176C0 202.51 21.49 224 48 224H176C202.51 224 224 202.51 224 176V48C224 21.49 202.51 0 176 0ZM464 288H336C309.49 288 288 309.49 288 336V464C288 490.51 309.49 512 336 512H464C490.51 512 512 490.51 512 464V336C512 309.49 490.51 288 464 288ZM464 0H336C309.49 0 288 21.49 288 48V176C288 202.51 309.49 224 336 224H464C490.51 224 512 202.51 512 176V48C512 21.49 490.51 0 464 0ZM176 288H48C21.49 288 0 309.49 0 336V464C0 490.51 21.49 512 48 512H176C202.51 512 224 490.51 224 464V336C224 309.49 202.51 288 176 288Z"/></svg>

<svg xmlns="http://www.w3.org/2000/svg" viewBox="0 0 512 512"><!--! Font Awesome Pro 6.0.0-alpha3 by @fontawesome - https://fontawesome.com License - https://fontawesome.com/license (Commercial License) --><path d="M176 0h-128C21.49 0 0 21.49 0 48v128C0 202.5 21.49 224 48 224h128C202.5 224 224 202.5 224 176v-128C224 21.49 202.5 0 176 0zM464 288h-128C309.5 288 288 309.5 288 336v128c0 26.51 21.49 48 48 48h128c26.51 0 48-21.49 48-48v-128C512 309.5 490.5 288 464 288zM464 0h-128C309.5 0 288 21.49 288 48v128C288 202.5 309.5 224 336 224h128C490.5 224 512 202.5 512 176v-128C512 21.49 490.5 0 464 0zM176 288h-128C21.49 288 0 309.5 0 336v128C0 490.5 21.49 512 48 512h128C202.5 512 224 490.5 224 464v-128C224 309.5 202.5 288 176 288z"/></svg>
